qqchat.svg

<svg fill="currentColor" viewBox="0 0 24 24"><path d="M3.18 13.54c.58-1.38 1.39-2.4 1.99-2.62-.01-.8.14-1.3.39-1.7 0-.03-.06-.36.16-.77C5.87 4.85 8.21 2 12 2s6.13 2.85 6.28 6.45c.22.41.16.74.16.77.25.4.4.9.39 1.7.6.22 1.41 1.24 1.99 2.63.75 1.76.87 3.45.27 3.75-.41.2-1.06-.3-1.67-1.18-.24.98-.84 1.88-1.69 2.59.9.33 1.48.87 1.48 1.48 0 1-1.58 1.81-3.52 1.81-1.76 0-3.19-.66-3.48-1.5h-.42c-.29.84-1.72 1.5-3.48 1.5-1.94 0-3.52-.81-3.52-1.81 0-.61.58-1.15 1.48-1.48-.85-.71-1.45-1.61-1.69-2.59-.61.88-1.26 1.38-1.67 1.18-.6-.3-.48-1.99.27-3.76"/></svg>

<svg  viewBox="0 0 24 24" fill="currentColor"><path  d="M3.18,13.54C3.76,12.16 4.57,11.14 5.17,10.92C5.16,10.12 5.31,9.62 5.56,9.22C5.56,9.19 5.5,8.86 5.72,8.45C5.87,4.85 8.21,2 12,2C15.79,2 18.13,4.85 18.28,8.45C18.5,8.86 18.44,9.19 18.44,9.22C18.69,9.62 18.84,10.12 18.83,10.92C19.43,11.14 20.24,12.16 20.82,13.55C21.57,15.31 21.69,17 21.09,17.3C20.68,17.5 20.03,17 19.42,16.12C19.18,17.1 18.58,18 17.73,18.71C18.63,19.04 19.21,19.58 19.21,20.19C19.21,21.19 17.63,22 15.69,22C13.93,22 12.5,21.34 12.21,20.5H11.79C11.5,21.34 10.07,22 8.31,22C6.37,22 4.79,21.19 4.79,20.19C4.79,19.58 5.37,19.04 6.27,18.71C5.42,18 4.82,17.1 4.58,16.12C3.97,17 3.32,17.5 2.91,17.3C2.31,17 2.43,15.31 3.18,13.54Z"/></svg>
